packages/foundations/assets/icons/functional/images/tooling/wrench.svg

<svg xmlns="http://www.w3.org/2000/svg" width="32" height="32" fill="none"><path fill="#1A1C1F" fill-rule="evenodd" d="M20.502 1.761a9.02 9.02 0 0 0-7.275 5.079q-1.407 2.953-.581 6.196l.108.422-5.493 5.498c-4.754 4.758-5.5 5.526-5.55 5.711-.169.629-.207.581 2.497 3.16 2.334 2.225 2.617 2.463 2.939 2.465.458.003.252.193 6.005-5.555l5.446-5.44.394.11c2.6.723 5.515.166 7.718-1.477a9.03 9.03 0 0 0 3.502-8.703c-.138-.851-.44-1.809-.677-2.148-.213-.304-.758-.448-1.145-.303-.082.031-1.026.931-2.097 2l-1.948 1.943-1.506-1.506-1.506-1.507 1.897-1.893c1.044-1.041 1.944-1.982 2-2.091a.94.94 0 0 0-.153-1.074c-.552-.584-2.934-1.045-4.575-.887m1.623 2.007.285.035-1.653 1.658c-.909.913-1.692 1.736-1.738 1.83-.109.216-.11.602-.003.857.056.135.801.918 2.307 2.427 1.223 1.226 2.314 2.291 2.425 2.368.24.167.63.218.926.123.16-.052.58-.439 1.894-1.746l1.689-1.678.039.364c.057.532-.011 1.685-.13 2.207-.471 2.069-1.78 3.768-3.633 4.716a6.85 6.85 0 0 1-3.233.777c-.776.001-1.334-.09-2.153-.351-.628-.2-.866-.233-1.147-.163-.116.03-1.615 1.494-5.493 5.369l-5.334 5.328-.986-.94-1.541-1.471-.554-.53 5.339-5.341c3.771-3.772 5.363-5.399 5.421-5.539.115-.28.106-.355-.128-1.077-.502-1.541-.493-3.179.024-4.618.499-1.386 1.481-2.656 2.655-3.432.973-.644 1.85-.978 3.077-1.172.228-.036 1.346-.036 1.645-.001"/></svg>

<svg width="32" height="32" viewBox="0 0 32 32" fill="none" xmlns="http://www.w3.org/2000/svg"><path d="M20.502 1.761 C 17.348 2.066,14.581 3.997,13.227 6.840 C 12.289 8.808,12.095 10.875,12.646 13.036 L 12.754 13.458 7.261 18.956 C 2.507 23.714,1.761 24.482,1.711 24.667 C 1.542 25.296,1.504 25.248,4.208 27.827 C 6.542 30.052,6.825 30.290,7.147 30.292 C 7.605 30.295,7.399 30.485,13.152 24.737 L 18.598 19.297 18.992 19.407 C 21.592 20.130,24.507 19.573,26.710 17.930 C 29.410 15.916,30.754 12.575,30.212 9.227 C 30.074 8.376,29.772 7.418,29.535 7.079 C 29.322 6.775,28.777 6.631,28.390 6.776 C 28.308 6.807,27.364 7.707,26.293 8.776 L 24.345 10.719 22.839 9.213 L 21.333 7.706 23.230 5.813 C 24.274 4.772,25.174 3.831,25.230 3.722 C 25.413 3.371,25.351 2.939,25.077 2.648 C 24.525 2.064,22.143 1.603,20.502 1.761 M22.125 3.768 L 22.410 3.803 20.757 5.461 C 19.848 6.374,19.065 7.197,19.019 7.291 C 18.910 7.507,18.909 7.893,19.016 8.148 C 19.072 8.283,19.817 9.066,21.323 10.575 C 22.546 11.801,23.637 12.866,23.748 12.943 C 23.988 13.110,24.378 13.161,24.674 13.066 C 24.834 13.014,25.254 12.627,26.568 11.320 L 28.257 9.642 28.296 10.006 C 28.353 10.538,28.285 11.691,28.166 12.213 C 27.695 14.282,26.386 15.981,24.533 16.929 C 23.496 17.459,22.470 17.706,21.300 17.706 C 20.524 17.707,19.966 17.616,19.147 17.355 C 18.519 17.155,18.281 17.122,18.000 17.192 C 17.884 17.222,16.385 18.686,12.507 22.561 L 7.173 27.889 6.187 26.949 C 5.644 26.432,4.951 25.770,4.646 25.478 L 4.092 24.948 9.431 19.607 C 13.202 15.835,14.794 14.208,14.852 14.068 C 14.967 13.788,14.958 13.713,14.724 12.991 C 14.222 11.450,14.231 9.812,14.748 8.373 C 15.247 6.987,16.229 5.717,17.403 4.941 C 18.376 4.297,19.253 3.963,20.480 3.769 C 20.708 3.733,21.826 3.733,22.125 3.768 " fill="#1A1C1F" stroke="none" fill-rule="evenodd"></path></svg>
